!!!OTL: 214. Bolgarish
!!!Genre:	Bolgarish
!!!Mode:	Minor
!!!Listening/dance:	dance
!!!One_Mode:	yes
**kern
*thru
*I"P1
*clefG2
*k[b-e-]
*B-:
!LO:TX:a:i:t=Bb-major
=5
16ffLL
16gg
16gg
16ggJJ
8.ggL
16ffJk
=6
16ggLL
16ffJ
24ee-L
24dd
24ccJJ
8.b-L
16ddJk
=7
8ffL
8ddJ
24ddLL
24ee-
24ddJ
24ccL
24dd
24ccJJ
=8
4.dd
8r
*>A
=9:|!|:
!!!End-Modulation
*B-:
!LO:TX:a:i:t=Bb-major
=5
16ffLL
16gg
16gg
16ggJJ
8.ggL
16ffJk
=6
16ggLL
16ffJ
24ee-L
24dd
24ccJJ
8.b-L
16ddJk
=7
8ffL
8ddJ
24ddLL
24ee-
24ddJ
24ccL
24dd
24ccJJ
=8
4.dd
8r
*>B
=9:|!|:
!!!End-Modulation
*-
